src/categories-icons-sprite/categories/svg-cat-home-bathroom2.svg

<svg width="32" height="42" viewBox="0 0 32 42" fill="none" xmlns="http://www.w3.org/2000/svg">
<path class="p-E0F4FF" d="M23.133 35.6836C22.9853 37.6523 22.6898 39.6867 22.0502 41.2371L21.7549 42H10.2375L9.94219 41.2371C9.30251 39.6867 9.00703 37.6523 8.85938 35.6836L15.9962 33.2227L23.133 35.6836Z" fill="#A1D1FD"/>
<path class="p-BBDCFF" d="M23.1329 35.6836C22.9852 37.6523 22.6898 39.6867 22.0501 41.2371L21.7548 42H15.9961V33.2227L23.1329 35.6836Z" fill="#58ADE5"/>
<path class="p-B2D1F2" d="M23.1329 35.6835H8.85934C8.51489 31.1307 9.20387 26.0858 9.86841 23.1082H22.1239C22.7883 26.0858 23.4773 31.1307 23.1329 35.6835Z" fill="#AFD9F6"/>
<path class="p-9ABADB" d="M23.1329 35.6835H15.9961V23.1082H22.1238C22.7883 26.0858 23.4773 31.1307 23.1329 35.6835Z" fill="#76B7E2"/>
<path class="p-BBDCFF" d="M24.6094 4.92188V7.38281H22.1484V4.92188C22.1484 3.56836 21.041 2.46094 19.6875 2.46094C18.334 2.46094 17.2266 3.56836 17.2266 4.92188V15.3633H14.7656V4.92188C14.7656 3.69141 15.2086 2.55929 15.9961 1.69805C16.882 0.664371 18.211 0 19.6875 0C22.3944 0 24.6094 2.21476 24.6094 4.92188Z" fill="#AFD9F6"/>
<path class="p-9ABADB" d="M24.6094 4.92187V7.38281H22.1484V4.92187C22.1484 3.56836 21.041 2.46094 19.6875 2.46094C18.334 2.46094 17.2266 3.56836 17.2266 4.92187V14.4492H15.9961V1.69805C16.882 0.664371 18.211 0 19.6875 0C22.3944 0 24.6094 2.21476 24.6094 4.92187Z" fill="#AFD9F6"/>
<path class="p-BBDCFF" d="M15.9961 7.38281H7.38281V9.84375H15.9961V7.38281Z" fill="#AFD9F6"/>
<path class="p-9ABADB" d="M27.0703 7.38281H19.6875V9.84375H27.0703V7.38281Z" fill="#A1D1FD"/>
<path class="p-BBDCFF" d="M12.3047 8.61328H9.84375V15.3633H12.3047V8.61328Z" fill="#AFD9F6"/>
<path class="p-BBDCFF" d="M0 14.1328V15.3633C0 21.4663 4.97118 24.6094 11.0742 24.6094H20.918C27.021 24.6094 31.9922 21.4663 31.9922 15.3633V14.1328H0Z" fill="#B9DFFC"/>
<path class="p-A2C7EE" d="M31.9922 14.1328V15.3633C31.9922 21.4663 27.021 24.6094 20.918 24.6094H15.9961V14.1328H31.9922Z" fill="#A1D1FD"/>
</svg>

<svg width="32" height="42" fill="none" xmlns="http://www.w3.org/2000/svg"><path class="p-E0F4FF" d="M23.133 35.684c-.148 1.968-.443 4.003-1.083 5.553l-.295.763H10.238l-.296-.763c-.64-1.55-.935-3.585-1.083-5.553l7.137-2.461 7.137 2.46z" fill="#A1D1FD"/><path class="p-BBDCFF" d="M23.133 35.684c-.148 1.968-.443 4.003-1.083 5.553l-.295.763h-5.759v-8.777l7.137 2.46z" fill="#58ADE5"/><path class="p-B2D1F2" d="M23.133 35.684H8.859c-.344-4.553.345-9.598 1.01-12.576h12.255c.664 2.978 1.353 8.023 1.009 12.576z" fill="#AFD9F6"/><path class="p-9ABADB" d="M23.133 35.684h-7.137V23.108h6.128c.664 2.978 1.353 8.023 1.009 12.576z" fill="#76B7E2"/><path class="p-BBDCFF" d="M24.61 4.922v2.46h-2.462v-2.46a2.468 2.468 0 00-2.46-2.461 2.468 2.468 0 00-2.461 2.46v10.442h-2.461V4.922c0-1.23.443-2.363 1.23-3.224A4.861 4.861 0 0119.687 0a4.936 4.936 0 014.922 4.922z" fill="#AFD9F6"/><path class="p-9ABADB" d="M24.61 4.922v2.46h-2.462v-2.46a2.468 2.468 0 00-2.46-2.461 2.468 2.468 0 00-2.461 2.46v9.528h-1.23V1.7A4.861 4.861 0 0119.686 0a4.936 4.936 0 014.922 4.922z" fill="#AFD9F6"/><path class="p-BBDCFF" d="M15.996 7.383H7.383v2.46h8.613v-2.46z" fill="#AFD9F6"/><path class="p-9ABADB" d="M27.07 7.383h-7.383v2.46h7.383v-2.46z" fill="#A1D1FD"/><path class="p-BBDCFF" d="M12.305 8.613H9.844v6.75h2.46v-6.75z" fill="#AFD9F6"/><path class="p-BBDCFF" d="M0 14.133v1.23c0 6.103 4.971 9.246 11.074 9.246h9.844c6.103 0 11.074-3.143 11.074-9.246v-1.23H0z" fill="#B9DFFC"/><path class="p-A2C7EE" d="M31.992 14.133v1.23c0 6.103-4.971 9.246-11.074 9.246h-4.922V14.133h15.996z" fill="#A1D1FD"/></svg>
